svgs/sharp-light/sunglasses.svg

<svg xmlns="http://www.w3.org/2000/svg" viewBox="0 0 576 512"><!--! Font Awesome Pro 6.6.0 by @fontawesome - https://fontawesome.com License - https://fontawesome.com/license (Commercial License) Copyright 2024 Fonticons, Inc. --><path d="M82.2 35.1l-14-2.5L64 46.1 .7 251.3 0 253.6 0 256s0 0 0 0l0 32 0 48 0 16 0 96 0 32 32 0 192 0 32 0 0-32 0-128 64 0 0 128 0 32 32 0 192 0 32 0 0-32 0-96 0-16 0-48 0-32s0 0 0 0l0-2.4-.7-2.3L512 46.1l-4.2-13.6-14 2.5L421.1 48.3l-15.7 2.9 5.7 31.5 15.7-2.9 58.7-10.6L543.3 256 352 256l-32 0 0 32-64 0 0-32-32 0L32.7 256 90.4 69.1l58.7 10.6 15.7 2.9 5.7-31.5-15.7-2.9L82.2 35.1zM544 336l0 16 0 96-156.2 0 99.4-49.7 14.3-7.2-14.3-28.6-14.3 7.2L352 430.1l0-36.2 87.2-43.6 14.3-7.2-14.3-28.6-14.3 7.2L352 358.1l0-70.1 192 0 0 48zM32 288l192 0 0 160L83.8 448l99.4-49.7 14.3-7.2-14.3-28.6-14.3 7.2-135 67.5-1.8 .9 0-36.2 7.2-3.6 96-48 14.3-7.2-14.3-28.6-14.3 7.2L32 366.1 32 352l0-16 0-48z"/></svg>

<svg xmlns="http://www.w3.org/2000/svg" viewBox="0 0 576 512"><!--! Font Awesome Pro 6.4.0 by @fontawesome - https://fontawesome.com License - https://fontawesome.com/license (Commercial License) Copyright 2023 Fonticons, Inc. --><path d="M82.2 35.1l-14-2.5L64 46.1 .7 251.3 0 253.6V256v0 32 48 16 96 32H32 224h32V448 320h64V448v32h32H544h32V448 352 336 288 256v0-2.4l-.7-2.3L512 46.1l-4.2-13.6-14 2.5L421.1 48.3l-15.7 2.9 5.7 31.5 15.7-2.9 58.7-10.6L543.3 256H352 320v32H256V256H224 32.7L90.4 69.1l58.7 10.6 15.7 2.9 5.7-31.5-15.7-2.9L82.2 35.1zM544 336v16 96H387.8l99.4-49.7 14.3-7.2-14.3-28.6-14.3 7.2L352 430.1V393.9l87.2-43.6 14.3-7.2-14.3-28.6-14.3 7.2L352 358.1V288H544v48zM32 288H224V448H83.8l99.4-49.7 14.3-7.2-14.3-28.6-14.3 7.2-135 67.5-1.8 .9V401.9l7.2-3.6 96-48 14.3-7.2-14.3-28.6-14.3 7.2L32 366.1V352 336 288z"/></svg>
